X:4285
T:Doon Reel, The
T:Callaghan's
R:reel
H:Also played in D, #786. Related to "The Ravelled Hank of Yarn", #16
Z:id:hn-reel-388
M:C|
K:G
~B3d cAAc|BGGB dedc|~B3d cAAc|1 dBcA BGGA:|2 dBcA BG~G2||
|:dgga gfde|dcBc defd|1 ~g3a gfde|=fedB c2Bc:|2 g2bg dgbg|~g2bg a^fdc||
